assets/images/members/cleverbase/cleverbase.svg

<svg xmlns="http://www.w3.org/2000/svg" viewBox="0 0 210.528 66.004"><path fill="#e42528" d="m40.406 39.055-.037.116a11 11 0 0 1-2.774 5.307 11.35 11.35 0 0 1-8.268 3.592 11.33 11.33 0 0 1-7.721-3.043 11 11 0 0 1-.711-.736c-.127-.139-.268-.291-.385-.444l-.336-.43a5 5 0 0 1-.235-.351l-.071-.105c-.43-.64-.793-1.341-1.084-2.086l-.059-.153c-.046-.127-.093-.255-.128-.385a4 4 0 0 1-.105-.303l-.056-.187a11 11 0 0 1-.41-2.692 11.25 11.25 0 0 1 3.031-8.117 11.26 11.26 0 0 1 7.886-3.581c2.04-.082 4.069.419 5.839 1.401h.014l.07.045a2.48 2.48 0 0 1 1.142 2.007 2.485 2.485 0 0 1-2.392 2.576l-.091.012a2.44 2.44 0 0 1-1.237-.338l-.105-.059a6.15 6.15 0 0 0-3.079-.676c-3.485.116-6.239 3.057-6.122 6.555.022.43.07.815.164 1.178a6.33 6.33 0 0 0 6.181 4.944 6.41 6.41 0 0 0 4.654-2.018 6.45 6.45 0 0 0 1.491-2.74c0-.036.012-.07.012-.093.116-.526.326-.934.631-1.26.92-.968 2.541-1.027 3.521-.116a2.48 2.48 0 0 1 .77 2.18"/><path fill="#3c8cc5" d="M58.461 12.839v47.872a5.303 5.303 0 0 1-5.293 5.293H5.293A5.303 5.303 0 0 1 0 60.711V2.194C0 1.61.223 1.062.642.654a2.18 2.18 0 0 1 3.114 0c.408.408.642.956.642 1.54l.011 5.408v53.109c0 .478.397.875.884.875h47.875a.88.88 0 0 0 .872-.875V12.839a.88.88 0 0 0-.872-.886H22.567a2.202 2.202 0 0 1-.374-4.351c.128-.034.267-.045.397-.056h30.578a5.296 5.296 0 0 1 5.293 5.293M83.424 32.931c-.28.404-.642.607-1.068.607q-.424 0-1.41-.383-.982-.382-1.672-.382c-.694 0-1.291.19-1.783.559a3.4 3.4 0 0 0-1.118 1.472 5.1 5.1 0 0 0-.369 1.941c0 1.043.296 1.953.883 2.744.593.784 1.383 1.179 2.387 1.179q.415 0 .889-.15.471-.153 1.159-.403c.444-.167.733-.252.845-.252q.454 0 .829.229.386.233.617.622.234.392.235.849c0 .612-.278 1.113-.841 1.522q-.841.61-1.974.885-1.134.276-1.952.276c-1.346 0-2.553-.34-3.622-1.008a6.84 6.84 0 0 1-2.471-2.736c-.588-1.15-.879-2.399-.879-3.757 0-.967.169-1.903.508-2.819a7.8 7.8 0 0 1 1.446-2.436 6.7 6.7 0 0 1 2.23-1.674 6.5 6.5 0 0 1 2.788-.608q.894 0 2.023.244 1.13.245 1.94.792c.531.366.804.839.804 1.422 0 .437-.143.862-.424 1.265M86.588 25.432q0-.963.542-1.565.534-.601 1.405-.601c.374 0 .716.091 1.009.272q.439.269.693.766c.164.328.248.709.248 1.128v16.647q-.001.637-.248 1.13a1.86 1.86 0 0 1-.702.768c-.296.18-.633.27-1 .27q-.871 0-1.405-.602-.542-.6-.542-1.566zM103.352 35.423q-.16-1.329-.977-2.146-.821-.823-2.127-.821-1.25 0-2.087.833c-.558.554-.888 1.265-1 2.134zm-6.098 2.602q.198 1.39 1.21 2.101c.677.478 1.501.717 2.458.717.59 0 1.089-.097 1.505-.28q.617-.278 1.549-.786c.62-.34 1.075-.509 1.357-.509q.394 0 .768.245.38.247.604.625.224.384.223.808c0 .405-.182.807-.563 1.202-.367.395-.869.749-1.487 1.063a9.8 9.8 0 0 1-2.103.752 9.4 9.4 0 0 1-2.209.284c-1.421 0-2.683-.328-3.803-.973a6.63 6.63 0 0 1-2.59-2.675c-.606-1.145-.911-2.425-.911-3.854q0-1.45.524-2.822a8 8 0 0 1 1.45-2.446 6.6 6.6 0 0 1 2.235-1.669 6.5 6.5 0 0 1 2.777-.6 6.5 6.5 0 0 1 2.833.627c.875.419 1.619.97 2.221 1.656a7.9 7.9 0 0 1 1.428 2.291q.516 1.264.517 2.502 0 1.74-1.704 1.741zM109.187 32.404q-.234-.638-.235-1.135-.001-.9.592-1.401.596-.5 1.438-.5 1.268-.001 1.731 1.385l2.478 7.673h.059l2.492-7.673q.431-1.386 1.736-1.385.841 0 1.43.494.583.494.583 1.407.001.497-.235 1.135l-3.92 10.049c-.213.558-.469.974-.76 1.233q-.444.389-1.353.389-.911 0-1.344-.384c-.28-.254-.542-.669-.765-1.238zM133.273 35.423q-.159-1.329-.979-2.146-.819-.823-2.125-.821c-.836 0-1.536.277-2.087.833-.553.554-.891 1.265-1.004 2.134zm-6.102 2.602c.134.927.535 1.627 1.214 2.101.674.478 1.496.717 2.455.717.595 0 1.096-.097 1.506-.28q.621-.278 1.551-.786.933-.51 1.355-.509.397 0 .768.245c.255.164.453.374.608.625.145.256.226.526.226.808q-.002.609-.568 1.202-.556.592-1.489 1.063a9.7 9.7 0 0 1-2.1.752 9.4 9.4 0 0 1-2.212.284c-1.417 0-2.681-.328-3.804-.973a6.65 6.65 0 0 1-2.587-2.675c-.606-1.145-.909-2.425-.909-3.854q0-1.45.522-2.822a8 8 0 0 1 1.448-2.446 6.62 6.62 0 0 1 5.014-2.269q1.517 0 2.833.627c.872.419 1.617.97 2.221 1.656a8 8 0 0 1 1.43 2.291c.342.843.517 1.676.517 2.502 0 1.16-.572 1.741-1.706 1.741zM139.949 31.32c0-.615.201-1.097.602-1.436q.601-.517 1.396-.516c1.264 0 1.904.545 1.904 1.624h.048q.593-.86 1.218-1.241c.413-.258.92-.383 1.515-.383q.753-.001 1.321.545.57.534.569 1.538c0 .387-.098.687-.301.885q-.293.306-.811.517c-.336.141-.746.303-1.213.487q-1.158.529-1.759 1.05c-.394.349-.587.866-.587 1.551v5.969c0 .421-.085.8-.253 1.126a1.85 1.85 0 0 1-.704.769q-.446.27-.998.27-.87.002-1.409-.6t-.538-1.565zM155.146 39.426c.526.827 1.278 1.242 2.264 1.242q.952 0 1.649-.58c.467-.385.813-.88 1.045-1.471q.344-.894.342-1.872.001-.975-.342-1.887a3.64 3.64 0 0 0-1.034-1.5q-.697-.584-1.66-.585c-.659 0-1.223.184-1.683.55a3.24 3.24 0 0 0-1.032 1.418 5.2 5.2 0 0 0-.335 1.872q0 1.575.786 2.813m-4.678-14.164c0-.645.173-1.165.528-1.565q.54-.602 1.41-.603.568 0 1.007.271c.298.18.528.435.701.767q.246.496.246 1.13v5.294a5.3 5.3 0 0 1 1.715-.997 5.9 5.9 0 0 1 1.984-.351q1.99 0 3.41 1.096 1.416 1.094 2.143 2.864a9.8 9.8 0 0 1 .729 3.748 8.3 8.3 0 0 1-.795 3.548 6.93 6.93 0 0 1-2.278 2.741c-.991.694-2.1 1.042-3.343 1.042a4.7 4.7 0 0 1-2.052-.469 3.5 3.5 0 0 1-1.513-1.325q-.397 1.621-1.954 1.622-.87.002-1.41-.6c-.355-.401-.528-.923-.528-1.565zM171.122 38.64q.35.906 1.041 1.466c.464.378 1.025.562 1.688.562.942 0 1.688-.395 2.218-1.179.529-.791.792-1.701.792-2.744q-.001-.973-.334-1.894c-.23-.612-.572-1.108-1.034-1.495q-.696-.584-1.642-.583c-.654 0-1.214.191-1.688.572-.474.383-.82.884-1.048 1.499a5.5 5.5 0 0 0-.344 1.901q0 .99.351 1.895m9.63 2.898c0 .76-.107 1.37-.312 1.836-.214.47-.731.7-1.558.7q-.798 0-1.223-.415-.434-.417-.64-1.235-1.546 1.823-3.713 1.822a5.84 5.84 0 0 1-3.27-.965c-.989-.643-1.764-1.529-2.317-2.671q-.844-1.712-.845-3.865 0-2.07.861-3.807.862-1.735 2.334-2.734a5.67 5.67 0 0 1 3.237-.996q1.094 0 2.089.449a3.93 3.93 0 0 1 1.624 1.335q.077-.715.615-1.17a1.85 1.85 0 0 1 1.248-.454q1.239 0 1.558.703c.205.474.312 1.087.312 1.842zM193.755 33.218c-.308.356-.681.532-1.132.532q-.304.001-1.157-.385a40 40 0 0 0-1.31-.565 2.8 2.8 0 0 0-1.031-.183q-.564-.001-.944.274-.381.276-.38.806-.001.567 1.166 1.077c.777.339 1.592.684 2.462 1.043a6.8 6.8 0 0 1 2.219 1.434c.61.598.916 1.398.916 2.414q0 1.304-.691 2.343c-.453.69-1.109 1.24-1.956 1.637q-1.276.6-2.899.602c-.762 0-1.572-.134-2.424-.393-.85-.268-1.563-.631-2.143-1.098q-.874-.7-.873-1.52c0-.354.155-.727.469-1.13.315-.4.711-.6 1.205-.6.358 0 .663.055.927.166q.395.164.998.509c.401.226.745.395 1.041.499.294.104.654.163 1.075.163.574 0 .977-.093 1.198-.275q.336-.27.337-.837 0-.568-1.125-1.059-1.118-.486-2.469-1.042-1.344-.556-2.255-1.468c-.61-.602-.911-1.409-.911-2.412 0-.888.226-1.677.669-2.364q.678-1.028 1.877-1.604 1.202-.574 2.731-.574c.718 0 1.444.107 2.198.318q1.118.316 1.893.964.774.643.775 1.529a1.8 1.8 0 0 1-.456 1.199M206.633 35.423q-.162-1.329-.977-2.146-.819-.823-2.125-.821-1.255 0-2.089.833-.827.83-1.002 2.134zm-6.102 2.602q.198 1.39 1.219 2.101 1.014.717 2.455.717c.588 0 1.089-.097 1.501-.28q.627-.278 1.555-.786.928-.51 1.353-.509c.263 0 .518.082.773.245q.377.247.601.625c.15.256.221.526.221.808q0 .609-.556 1.202-.565.592-1.494 1.063a9.7 9.7 0 0 1-2.1.752 9.4 9.4 0 0 1-2.212.284c-1.419 0-2.683-.328-3.801-.973a6.63 6.63 0 0 1-2.59-2.675c-.606-1.145-.913-2.425-.913-3.854 0-.967.182-1.907.524-2.822a8 8 0 0 1 1.453-2.446 6.6 6.6 0 0 1 2.23-1.669 6.6 6.6 0 0 1 2.781-.6q1.517 0 2.829.627 1.319.628 2.225 1.656a8 8 0 0 1 1.428 2.291q.515 1.264.515 2.502-.001 1.74-1.704 1.741z"/></svg>

<svg version="1.1" xmlns="http://www.w3.org/2000/svg" xmlns:xlink="http://www.w3.org/1999/xlink" x="0" y="0" viewBox="0, 0, 210.528, 66.004">
  <g id="Capa_1" transform="translate(0, 0)">
    <path d="M40.406,39.055 L40.369,39.171 C39.939,41.201 38.982,43.009 37.595,44.478 C35.459,46.763 32.45,48.07 29.327,48.07 C26.458,48.07 23.718,46.986 21.606,45.027 C21.362,44.792 21.116,44.549 20.895,44.291 C20.768,44.152 20.627,44 20.51,43.847 L20.174,43.417 C20.089,43.301 20.01,43.184 19.939,43.066 L19.868,42.961 C19.438,42.321 19.075,41.62 18.784,40.875 L18.725,40.722 C18.679,40.595 18.632,40.467 18.597,40.337 C18.563,40.255 18.529,40.15 18.492,40.034 L18.436,39.847 C18.189,38.961 18.048,38.053 18.026,37.155 C17.921,34.133 18.993,31.254 21.057,29.038 C23.121,26.833 25.92,25.562 28.943,25.457 C30.983,25.375 33.012,25.876 34.782,26.858 L34.796,26.858 L34.866,26.903 C35.554,27.348 35.985,28.093 36.008,28.91 C36.055,30.286 34.983,31.441 33.616,31.486 L33.525,31.498 C33.081,31.498 32.673,31.381 32.288,31.16 L32.183,31.101 C31.263,30.623 30.191,30.379 29.104,30.425 C25.619,30.541 22.865,33.482 22.982,36.98 C23.004,37.41 23.052,37.795 23.146,38.158 C23.426,39.406 24.068,40.524 25,41.399 C26.177,42.494 27.717,43.102 29.327,43.102 C31.076,43.102 32.778,42.367 33.981,41.084 C34.691,40.315 35.204,39.369 35.472,38.344 C35.472,38.308 35.484,38.274 35.484,38.251 C35.6,37.725 35.81,37.317 36.115,36.991 C37.035,36.023 38.656,35.964 39.636,36.875 C40.242,37.433 40.522,38.251 40.406,39.055" fill="#E42528"></path>
    <path d="M58.461,12.839 L58.461,60.711 C58.461,63.627 56.083,66.004 53.168,66.004 L5.293,66.004 C2.378,66.004 -0,63.627 -0,60.711 L-0,2.194 C-0,1.61 0.223,1.062 0.642,0.654 C1.061,0.234 1.61,-0 2.193,-0 C2.788,-0 3.335,0.234 3.756,0.654 C4.164,1.062 4.398,1.61 4.398,2.194 L4.409,7.602 L4.409,60.711 C4.409,61.189 4.806,61.586 5.293,61.586 L53.168,61.586 C53.644,61.586 54.04,61.189 54.04,60.711 L54.04,12.839 C54.04,12.349 53.644,11.953 53.168,11.953 L22.567,11.953 C21.387,11.896 20.467,10.928 20.467,9.75 C20.467,8.701 21.203,7.826 22.193,7.602 C22.321,7.568 22.46,7.557 22.59,7.546 L53.168,7.546 C56.083,7.546 58.461,9.912 58.461,12.839" fill="#3C8CC5"></path>
    <path d="M83.424,32.931 C83.144,33.335 82.782,33.538 82.356,33.538 C82.074,33.538 81.602,33.41 80.946,33.155 C80.29,32.9 79.735,32.773 79.274,32.773 C78.58,32.773 77.983,32.963 77.491,33.332 C76.992,33.706 76.616,34.2 76.373,34.804 C76.127,35.414 76.004,36.059 76.004,36.745 C76.004,37.788 76.3,38.698 76.887,39.489 C77.48,40.273 78.27,40.668 79.274,40.668 C79.55,40.668 79.848,40.619 80.163,40.518 C80.477,40.416 80.864,40.282 81.322,40.115 C81.766,39.948 82.055,39.863 82.167,39.863 C82.47,39.863 82.746,39.939 82.996,40.092 C83.254,40.248 83.459,40.454 83.613,40.714 C83.768,40.976 83.848,41.258 83.848,41.563 C83.848,42.175 83.57,42.676 83.007,43.085 C82.447,43.493 81.787,43.786 81.033,43.97 C80.277,44.154 79.627,44.246 79.081,44.246 C77.735,44.246 76.528,43.906 75.459,43.238 C74.396,42.564 73.571,41.651 72.988,40.502 C72.4,39.352 72.109,38.103 72.109,36.745 C72.109,35.778 72.278,34.842 72.617,33.926 C72.954,33.017 73.439,32.203 74.063,31.49 C74.685,30.78 75.427,30.221 76.293,29.816 C77.154,29.411 78.086,29.208 79.081,29.208 C79.677,29.208 80.352,29.29 81.104,29.452 C81.857,29.616 82.504,29.879 83.044,30.244 C83.575,30.61 83.848,31.083 83.848,31.666 C83.848,32.103 83.705,32.528 83.424,32.931" fill="#3C8CC5"></path>
    <path d="M86.588,25.432 C86.588,24.79 86.768,24.268 87.13,23.867 C87.485,23.466 87.955,23.266 88.535,23.266 C88.909,23.266 89.251,23.357 89.544,23.538 C89.836,23.718 90.068,23.972 90.237,24.304 C90.401,24.632 90.485,25.013 90.485,25.432 L90.485,42.079 C90.485,42.503 90.401,42.881 90.237,43.209 C90.068,43.539 89.836,43.796 89.535,43.977 C89.239,44.157 88.902,44.247 88.535,44.247 C87.955,44.247 87.485,44.046 87.13,43.645 C86.768,43.246 86.588,42.723 86.588,42.079 z" fill="#3C8CC5"></path>
    <path d="M103.352,35.423 C103.245,34.538 102.921,33.821 102.375,33.277 C101.828,32.727 101.118,32.456 100.248,32.456 C99.414,32.456 98.719,32.733 98.161,33.289 C97.603,33.843 97.273,34.554 97.161,35.423 z M97.254,38.025 C97.385,38.952 97.79,39.652 98.464,40.126 C99.141,40.604 99.965,40.843 100.922,40.843 C101.512,40.843 102.011,40.746 102.427,40.563 C102.839,40.378 103.354,40.115 103.976,39.777 C104.596,39.437 105.051,39.268 105.333,39.268 C105.596,39.268 105.851,39.35 106.101,39.513 C106.354,39.677 106.557,39.887 106.705,40.138 C106.855,40.394 106.928,40.664 106.928,40.946 C106.928,41.351 106.746,41.753 106.365,42.148 C105.998,42.543 105.496,42.897 104.878,43.211 C104.254,43.524 103.557,43.775 102.775,43.963 C101.999,44.152 101.261,44.247 100.566,44.247 C99.145,44.247 97.883,43.919 96.763,43.274 C95.642,42.627 94.781,41.739 94.173,40.599 C93.567,39.454 93.262,38.174 93.262,36.745 C93.262,35.778 93.437,34.838 93.786,33.923 C94.13,33.007 94.615,32.191 95.236,31.477 C95.858,30.766 96.601,30.211 97.471,29.808 C98.334,29.409 99.259,29.208 100.248,29.208 C101.261,29.208 102.206,29.417 103.081,29.835 C103.956,30.254 104.7,30.805 105.302,31.491 C105.91,32.181 106.391,32.94 106.73,33.782 C107.074,34.625 107.247,35.458 107.247,36.284 C107.247,37.444 106.68,38.025 105.543,38.025 z" fill="#3C8CC5"></path>
    <path d="M109.187,32.404 C109.032,31.979 108.952,31.6 108.952,31.269 C108.952,30.668 109.148,30.202 109.544,29.868 C109.941,29.534 110.421,29.368 110.982,29.368 C111.827,29.368 112.405,29.828 112.713,30.753 L115.191,38.426 L115.25,38.426 L117.742,30.753 C118.031,29.828 118.607,29.368 119.478,29.368 C120.038,29.368 120.516,29.532 120.908,29.862 C121.297,30.192 121.491,30.66 121.491,31.269 C121.491,31.6 121.414,31.979 121.256,32.404 L117.336,42.453 C117.123,43.011 116.867,43.427 116.576,43.686 C116.28,43.945 115.829,44.075 115.223,44.075 C114.615,44.075 114.168,43.947 113.879,43.691 C113.599,43.437 113.337,43.022 113.114,42.453 z" fill="#3C8CC5"></path>
    <path d="M133.273,35.423 C133.166,34.538 132.842,33.821 132.294,33.277 C131.747,32.727 131.041,32.456 130.169,32.456 C129.333,32.456 128.633,32.733 128.082,33.289 C127.529,33.843 127.191,34.554 127.078,35.423 z M127.171,38.025 C127.305,38.952 127.706,39.652 128.385,40.126 C129.059,40.604 129.881,40.843 130.84,40.843 C131.435,40.843 131.936,40.746 132.346,40.563 C132.76,40.378 133.277,40.115 133.897,39.777 C134.519,39.437 134.97,39.268 135.252,39.268 C135.517,39.268 135.772,39.35 136.02,39.513 C136.275,39.677 136.473,39.887 136.628,40.138 C136.773,40.394 136.854,40.664 136.854,40.946 C136.854,41.351 136.662,41.753 136.286,42.148 C135.915,42.543 135.419,42.897 134.797,43.211 C134.177,43.524 133.476,43.775 132.697,43.963 C131.918,44.152 131.18,44.247 130.485,44.247 C129.068,44.247 127.804,43.919 126.681,43.274 C125.565,42.627 124.702,41.739 124.094,40.599 C123.488,39.454 123.185,38.174 123.185,36.745 C123.185,35.778 123.358,34.838 123.707,33.923 C124.053,33.007 124.536,32.191 125.155,31.477 C125.777,30.766 126.518,30.211 127.39,29.808 C128.257,29.409 129.187,29.208 130.169,29.208 C131.18,29.208 132.125,29.417 133.002,29.835 C133.874,30.254 134.619,30.805 135.223,31.491 C135.836,32.181 136.309,32.94 136.653,33.782 C136.995,34.625 137.17,35.458 137.17,36.284 C137.17,37.444 136.598,38.025 135.464,38.025 z" fill="#3C8CC5"></path>
    <path d="M139.949,31.32 C139.949,30.705 140.15,30.223 140.551,29.884 C140.951,29.539 141.418,29.368 141.947,29.368 C143.211,29.368 143.851,29.913 143.851,30.992 L143.899,30.992 C144.295,30.418 144.7,30.005 145.117,29.751 C145.53,29.493 146.037,29.368 146.632,29.368 C147.135,29.368 147.574,29.548 147.953,29.913 C148.333,30.269 148.522,30.782 148.522,31.451 C148.522,31.838 148.424,32.138 148.221,32.336 C148.026,32.54 147.755,32.712 147.41,32.853 C147.074,32.994 146.664,33.156 146.197,33.34 C145.425,33.693 144.839,34.042 144.438,34.39 C144.044,34.739 143.851,35.256 143.851,35.941 L143.851,41.91 C143.851,42.331 143.766,42.71 143.598,43.036 C143.429,43.368 143.197,43.623 142.894,43.805 C142.598,43.984 142.263,44.075 141.896,44.075 C141.316,44.075 140.846,43.877 140.487,43.475 C140.127,43.074 139.949,42.552 139.949,41.91 z" fill="#3C8CC5"></path>
    <path d="M155.146,39.426 C155.672,40.253 156.424,40.668 157.41,40.668 C158.045,40.668 158.594,40.475 159.059,40.088 C159.526,39.703 159.872,39.208 160.104,38.617 C160.334,38.021 160.446,37.397 160.446,36.745 C160.446,36.096 160.334,35.465 160.104,34.858 C159.872,34.25 159.53,33.752 159.07,33.358 C158.605,32.969 158.052,32.773 157.41,32.773 C156.751,32.773 156.187,32.957 155.727,33.323 C155.262,33.686 154.918,34.162 154.695,34.741 C154.472,35.322 154.36,35.946 154.36,36.613 C154.36,37.664 154.622,38.6 155.146,39.426 M150.468,25.262 C150.468,24.617 150.641,24.097 150.996,23.697 C151.356,23.296 151.825,23.094 152.406,23.094 C152.784,23.094 153.121,23.185 153.413,23.365 C153.711,23.545 153.941,23.8 154.114,24.132 C154.278,24.462 154.36,24.84 154.36,25.262 L154.36,30.556 C154.852,30.124 155.426,29.791 156.075,29.559 C156.731,29.327 157.387,29.208 158.059,29.208 C159.387,29.208 160.521,29.573 161.469,30.304 C162.412,31.033 163.129,31.989 163.612,33.168 C164.097,34.349 164.341,35.598 164.341,36.916 C164.341,38.152 164.072,39.332 163.546,40.464 C163.011,41.594 162.25,42.509 161.268,43.205 C160.277,43.899 159.168,44.247 157.925,44.247 C157.209,44.247 156.526,44.091 155.873,43.778 C155.216,43.466 154.715,43.022 154.36,42.453 C154.096,43.533 153.444,44.075 152.406,44.075 C151.825,44.075 151.356,43.877 150.996,43.475 C150.641,43.074 150.468,42.552 150.468,41.91 z" fill="#3C8CC5"></path>
    <path d="M171.122,38.64 C171.356,39.244 171.701,39.733 172.163,40.106 C172.627,40.484 173.188,40.668 173.851,40.668 C174.793,40.668 175.539,40.273 176.069,39.489 C176.598,38.698 176.861,37.788 176.861,36.745 C176.861,36.096 176.748,35.465 176.527,34.851 C176.297,34.239 175.955,33.743 175.493,33.356 C175.03,32.966 174.481,32.773 173.851,32.773 C173.197,32.773 172.637,32.964 172.163,33.345 C171.689,33.728 171.343,34.229 171.115,34.844 C170.887,35.46 170.771,36.096 170.771,36.745 C170.771,37.405 170.887,38.036 171.122,38.64 M180.752,41.538 C180.752,42.298 180.645,42.908 180.44,43.374 C180.226,43.844 179.709,44.074 178.882,44.074 C178.349,44.074 177.943,43.935 177.659,43.659 C177.37,43.381 177.156,42.969 177.019,42.424 C175.989,43.64 174.75,44.246 173.306,44.246 C172.108,44.246 171.019,43.925 170.036,43.281 C169.047,42.638 168.272,41.752 167.719,40.61 C167.157,39.468 166.874,38.181 166.874,36.745 C166.874,35.365 167.161,34.096 167.735,32.938 C168.309,31.781 169.088,30.871 170.069,30.204 C171.058,29.538 172.136,29.208 173.306,29.208 C174.035,29.208 174.732,29.358 175.395,29.657 C176.058,29.956 176.598,30.398 177.019,30.992 C177.069,30.515 177.276,30.126 177.634,29.822 C177.987,29.518 178.403,29.368 178.882,29.368 C179.709,29.368 180.226,29.602 180.44,30.071 C180.645,30.545 180.752,31.158 180.752,31.913 z" fill="#3C8CC5"></path>
    <path d="M193.755,33.218 C193.447,33.574 193.074,33.75 192.623,33.75 C192.42,33.75 192.035,33.623 191.466,33.365 C190.901,33.112 190.461,32.923 190.156,32.8 C189.844,32.676 189.503,32.617 189.125,32.617 C188.749,32.617 188.434,32.707 188.181,32.891 C187.926,33.076 187.801,33.343 187.801,33.697 C187.801,34.076 188.188,34.433 188.967,34.774 C189.744,35.113 190.559,35.458 191.429,35.817 C192.293,36.171 193.035,36.65 193.648,37.251 C194.258,37.849 194.564,38.649 194.564,39.665 C194.564,40.535 194.334,41.315 193.873,42.008 C193.42,42.698 192.764,43.248 191.917,43.645 C191.067,44.044 190.099,44.247 189.018,44.247 C188.256,44.247 187.446,44.113 186.594,43.854 C185.744,43.586 185.031,43.223 184.451,42.756 C183.867,42.289 183.578,41.784 183.578,41.236 C183.578,40.882 183.733,40.509 184.047,40.106 C184.362,39.706 184.758,39.506 185.252,39.506 C185.61,39.506 185.915,39.561 186.179,39.672 C186.441,39.781 186.776,39.951 187.177,40.181 C187.578,40.407 187.922,40.576 188.218,40.68 C188.512,40.784 188.872,40.843 189.293,40.843 C189.867,40.843 190.27,40.75 190.491,40.568 C190.714,40.387 190.828,40.11 190.828,39.731 C190.828,39.352 190.452,39 189.703,38.672 C188.958,38.348 188.134,38 187.234,37.63 C186.337,37.26 185.587,36.77 184.979,36.162 C184.369,35.56 184.068,34.753 184.068,33.75 C184.068,32.862 184.294,32.073 184.737,31.386 C185.189,30.7 185.815,30.167 186.614,29.782 C187.416,29.4 188.325,29.208 189.345,29.208 C190.063,29.208 190.789,29.315 191.543,29.526 C192.288,29.737 192.919,30.058 193.436,30.49 C193.951,30.919 194.211,31.428 194.211,32.019 C194.211,32.472 194.053,32.868 193.755,33.218" fill="#3C8CC5"></path>
    <path d="M206.633,35.423 C206.524,34.538 206.2,33.821 205.656,33.277 C205.111,32.727 204.401,32.456 203.531,32.456 C202.695,32.456 201.998,32.733 201.442,33.289 C200.891,33.843 200.556,34.554 200.44,35.423 z M200.531,38.025 C200.663,38.952 201.069,39.652 201.75,40.126 C202.426,40.604 203.244,40.843 204.205,40.843 C204.793,40.843 205.294,40.746 205.706,40.563 C206.125,40.378 206.642,40.115 207.261,39.777 C207.879,39.437 208.332,39.268 208.614,39.268 C208.877,39.268 209.132,39.35 209.387,39.513 C209.637,39.677 209.84,39.887 209.988,40.138 C210.138,40.394 210.209,40.664 210.209,40.946 C210.209,41.351 210.024,41.753 209.653,42.148 C209.275,42.543 208.779,42.897 208.159,43.211 C207.537,43.524 206.84,43.775 206.059,43.963 C205.282,44.152 204.542,44.247 203.847,44.247 C202.428,44.247 201.164,43.919 200.046,43.274 C198.927,42.627 198.062,41.739 197.456,40.599 C196.85,39.454 196.543,38.174 196.543,36.745 C196.543,35.778 196.725,34.838 197.067,33.923 C197.413,33.007 197.898,32.191 198.52,31.477 C199.142,30.766 199.882,30.211 200.75,29.808 C201.615,29.409 202.542,29.208 203.531,29.208 C204.542,29.208 205.485,29.417 206.36,29.835 C207.239,30.254 207.981,30.805 208.585,31.491 C209.193,32.181 209.669,32.94 210.013,33.782 C210.357,34.625 210.528,35.458 210.528,36.284 C210.528,37.444 209.958,38.025 208.824,38.025 z" fill="#3C8CC5"></path>
  </g>
</svg>
